X: 75
T:John Lardner's Reel
R:reel
M:2/4
L:1/16
Z:bil@blueskiesink.com
K:G
DF|G2GB AGFA|GBdf g2fg|afdf gfed|cBAG FADF|G2GB AGFA|GBdf g2fg|afdf
gfed|cBAG FAD2:||D2|D2FD ADFA|G2BG dGBG|A2cA eAcA|d2fd afdf|gfgd egdB|cd
ef
gfge|dgfe dcBA|BDF
<end>
<start>
